dist/img/card/card-icon1.svg

<svg width="16" height="9" viewBox="0 0 16 9" fill="none" xmlns="http://www.w3.org/2000/svg">
<path d="M15.9151 8.12799C15.8958 8.08682 15.8777 8.05268 15.8609 8.02532C15.5833 7.5324 15.0528 6.92739 14.2698 6.21009L14.2533 6.19367L14.245 6.18561L14.2366 6.17736H14.2282C13.8728 5.84335 13.6478 5.61877 13.5535 5.50379C13.3811 5.28476 13.3424 5.06305 13.4367 4.83841C13.5033 4.66869 13.7534 4.31026 14.1864 3.76263C14.4142 3.4724 14.5946 3.2398 14.7279 3.06455C15.6887 1.80515 16.1053 1.00038 15.9775 0.649913L15.9279 0.568014C15.8945 0.518708 15.8084 0.473602 15.6698 0.432466C15.5308 0.391416 15.3531 0.384627 15.1364 0.411984L12.7373 0.428324C12.6985 0.414746 12.643 0.416011 12.5707 0.432466C12.4984 0.44892 12.4623 0.457177 12.4623 0.457177L12.4206 0.477745L12.3874 0.502455C12.3596 0.518794 12.3291 0.547533 12.2957 0.588611C12.2626 0.629546 12.2348 0.677586 12.2126 0.732329C11.9514 1.39485 11.6545 2.01083 11.3212 2.58024C11.1157 2.91977 10.9269 3.21402 10.7546 3.46317C10.5825 3.71223 10.4381 3.89573 10.3215 4.01336C10.2048 4.1311 10.0995 4.22543 10.0049 4.29668C9.91044 4.36797 9.83834 4.39808 9.78842 4.38707C9.73838 4.37605 9.69125 4.36512 9.64664 4.35419C9.56894 4.30488 9.50644 4.23782 9.45932 4.15296C9.41199 4.0681 9.38013 3.96129 9.36347 3.83262C9.3469 3.70386 9.33709 3.59311 9.33429 3.49999C9.33169 3.40699 9.33289 3.27544 9.33852 3.10572C9.3443 2.93591 9.3469 2.82101 9.3469 2.76078C9.3469 2.55268 9.35101 2.32683 9.35927 2.08318C9.36767 1.83953 9.37447 1.64647 9.38016 1.50425C9.38582 1.36189 9.38844 1.21126 9.38844 1.05247C9.38844 0.893681 9.37864 0.76915 9.35927 0.678765C9.34013 0.588496 9.31074 0.500873 9.27203 0.415925C9.23307 0.331064 9.17606 0.265419 9.10125 0.218817C9.02629 0.172272 8.93309 0.135336 8.82219 0.107893C8.52781 0.0422185 8.15296 0.00669179 7.69747 0.00116861C6.66454 -0.0097627 6.00083 0.0559976 5.70648 0.198363C5.58985 0.258514 5.48432 0.3407 5.38996 0.444663C5.28996 0.565166 5.27602 0.630927 5.3482 0.641743C5.68147 0.690963 5.91741 0.808704 6.05626 0.994853L6.1063 1.09349C6.14523 1.16466 6.18409 1.29066 6.22299 1.47131C6.26182 1.65197 6.28689 1.85181 6.29792 2.07072C6.32563 2.47049 6.32563 2.8127 6.29792 3.09737C6.27011 3.38216 6.24385 3.60387 6.21878 3.76266C6.19372 3.92145 6.15626 4.05012 6.1063 4.14865C6.05626 4.2472 6.02297 4.30744 6.00628 4.3293C5.98962 4.35117 5.97573 4.36494 5.9647 4.37035C5.89252 4.39762 5.81744 4.41152 5.73974 4.41152C5.66192 4.41152 5.56756 4.37314 5.45651 4.29645C5.34549 4.21976 5.23027 4.11442 5.11084 3.98025C4.99141 3.84605 4.85673 3.65852 4.70673 3.41763C4.55684 3.17674 4.40132 2.89204 4.24026 2.56352L4.107 2.32528C4.0237 2.17201 3.9099 1.94884 3.7655 1.65597C3.62101 1.36298 3.4933 1.07957 3.38228 0.805799C3.3379 0.690819 3.27123 0.603282 3.18238 0.543045L3.14069 0.518334C3.11297 0.496472 3.06847 0.473257 3.00743 0.448518C2.9463 0.423807 2.88252 0.406087 2.81582 0.395184L0.533256 0.411524C0.300008 0.411524 0.141747 0.46362 0.0584143 0.567669L0.0250639 0.616888C0.00840325 0.644303 0 0.688086 0 0.748352C0 0.808589 0.0166606 0.882519 0.050011 0.970056C0.383223 1.74215 0.745584 2.48677 1.13709 3.20404C1.5286 3.92131 1.86882 4.49908 2.15753 4.93685C2.44631 5.37494 2.74066 5.7884 3.04058 6.17704C3.3405 6.56582 3.53902 6.81497 3.63616 6.92442C3.73341 7.03408 3.80979 7.11607 3.86532 7.17081L4.07362 7.36789C4.20691 7.49932 4.40263 7.65673 4.66089 7.84012C4.9192 8.02362 5.20517 8.20428 5.51895 8.38237C5.83279 8.56018 6.19789 8.70528 6.61447 8.81749C7.03098 8.92983 7.43638 8.97491 7.83072 8.95316H8.78875C8.98305 8.93662 9.13025 8.87638 9.2303 8.77242L9.26345 8.73125C9.28574 8.69857 9.3066 8.6478 9.32586 8.57948C9.34535 8.51104 9.35504 8.43565 9.35504 8.35363C9.34935 8.11824 9.36752 7.90608 9.40907 7.7172C9.45059 7.52838 9.49792 7.38601 9.55085 7.29013C9.60375 7.19434 9.66345 7.11351 9.72989 7.04798C9.79647 6.9823 9.84391 6.94252 9.87175 6.92882C9.89941 6.91505 9.9215 6.9057 9.93816 6.90009C10.0714 6.8563 10.2283 6.89871 10.409 7.02749C10.5895 7.15617 10.7588 7.31504 10.9172 7.50387C11.0755 7.69286 11.2657 7.9049 11.4878 8.1403C11.71 8.37578 11.9043 8.55083 12.0709 8.66598L12.2374 8.76453C12.3487 8.8303 12.4931 8.89053 12.6708 8.94528C12.8482 8.99999 13.0037 9.01368 13.1372 8.98633L15.2697 8.95353C15.4807 8.95353 15.6448 8.9191 15.7612 8.85078C15.8779 8.78234 15.9472 8.70694 15.9695 8.62493C15.9918 8.54283 15.993 8.44969 15.9737 8.34555C15.954 8.24167 15.9345 8.16904 15.9151 8.12799Z" fill="#BFC0C4"/>
</svg>

<svg width="16" height="9" fill="none" xmlns="http://www.w3.org/2000/svg"><path d="M15.915 8.128a1.053 1.053 0 00-.054-.103c-.278-.493-.808-1.098-1.591-1.815l-.017-.016-.008-.008-.008-.009h-.009a9.881 9.881 0 01-.675-.673c-.172-.22-.21-.44-.116-.666.066-.17.316-.528.75-1.075.227-.29.408-.523.54-.698C15.69 1.805 16.106 1 15.978.65l-.05-.082c-.032-.05-.119-.094-.257-.136a1.33 1.33 0 00-.534-.02l-2.399.016a.315.315 0 00-.166.004l-.109.025-.041.02-.034.025a.369.369 0 00-.091.087.565.565 0 00-.083.143 13.328 13.328 0 01-.892 1.848c-.205.34-.394.634-.566.883a4.25 4.25 0 01-.434.55 3.005 3.005 0 01-.316.284c-.095.071-.167.101-.217.09a6.195 6.195 0 01-.141-.033.55.55 0 01-.188-.201.892.892 0 01-.096-.32 3.483 3.483 0 01-.024-.727c.005-.17.008-.285.008-.345 0-.208.004-.434.012-.678l.021-.579c.006-.142.008-.293.008-.452 0-.158-.01-.283-.029-.373a1.266 1.266 0 00-.087-.263.444.444 0 00-.17-.197.97.97 0 00-.28-.111A5.62 5.62 0 007.697 0c-1.032-.01-1.696.055-1.99.197a1.12 1.12 0 00-.317.247c-.1.12-.114.186-.042.197.333.049.57.167.708.353l.05.098c.04.072.078.198.117.378.039.181.064.38.075.6.028.4.028.742 0 1.026-.028.285-.054.507-.08.666a1.318 1.318 0 01-.212.566.142.142 0 01-.041.041.632.632 0 01-.225.042c-.078 0-.172-.039-.283-.116a1.988 1.988 0 01-.346-.316 4.228 4.228 0 01-.404-.562 9.771 9.771 0 01-.467-.854l-.133-.239a20.383 20.383 0 01-.342-.669 12.814 12.814 0 01-.383-.85.542.542 0 00-.2-.263L3.141.518a.894.894 0 00-.325-.123L.533.412C.3.412.142.464.058.568L.025.617A.263.263 0 000 .748c0 .06.017.135.05.222.333.772.696 1.517 1.087 2.234.392.717.732 1.295 1.02 1.733.29.438.584.851.884 1.24.3.389.498.638.595.747.097.11.174.192.23.247l.208.197c.133.131.329.289.587.472.258.184.544.364.858.542.314.178.679.323 1.095.435a3.84 3.84 0 001.217.136h.958c.194-.016.341-.077.441-.18l.033-.042a.54.54 0 00.063-.152.823.823 0 00.029-.225 2.67 2.67 0 01.054-.637 1.67 1.67 0 01.142-.427 1.05 1.05 0 01.32-.361.549.549 0 01.067-.029c.133-.044.29-.001.471.127.18.13.35.288.508.477.159.189.349.4.57.636.223.236.417.41.584.526l.166.099c.112.065.256.126.434.18a.947.947 0 00.466.041l2.133-.032c.21 0 .375-.035.491-.103.117-.069.186-.144.209-.226a.627.627 0 00.004-.28 1.014 1.014 0 00-.059-.217z" fill="#BFC0C4"/></svg>
